X: 1
T: Women of Ireland
C: Mike Oldfield
M: 4/4
L: 1/4
K: G
Q:1/4=115
%%MIDI 
z1 A, A,3/4B,3/4C3/4 | "Am" G4- | G3/ C/ A3/ G/ | "D" F/ A,3-A,/ | -A,3 A,/B,/ | "C" C3/ D3/ C | "D" A,4 | 
z A, A,/ B,3/4 C3/4 | "Am" G4- | G3/ C/ A3/ G/ | "D" F/ A,3-A,/ | -A,3 A,/ B,/ | "C" C3/ D3/ C | "D" A,3 G, |
"G" G,4 | "Bm/F#" z4 | "Em" g4- | g2 a3/ b/ | "Am"  a3/ g3/ e/ d/ | "C" e2-e/ d/c/B/ |"D" A3 z | 
"Em" g4- | g2 a3/ b/ | "Am"  a3/ g3/ e/d/ |  "C" e2-e/ d/c/B/ | "D" A3 G |  "G" G4 | z4

